dhis-2/dhis-support/dhis-support-system/src/main/resources/SVGs/cardiogram_outline.svg

<svg width="48" height="48" viewBox="0 0 48 48" fill="none" xmlns="http://www.w3.org/2000/svg">
<path d="M24.0287 4.97266C22.6287 4.97416 21.4767 6.07414 21.4097 7.47262H19.3117C18.7237 7.47262 18.2497 7.94782 18.2497 8.53701V8.77531H11.8608C10.8318 8.77531 10.0018 9.6029 10.0018 10.6329V41.1675C10.0018 42.1975 10.8318 43.0265 11.8608 43.0265H36.1385C37.1675 43.0265 37.9955 42.1975 37.9955 41.1675V10.6329C37.9955 9.6029 37.1675 8.77531 36.1385 8.77531H29.7476V8.53701C29.7476 7.94782 29.2746 7.47262 28.6856 7.47262H26.6476C26.5816 6.07414 25.4286 4.97416 24.0287 4.97266ZM24.0307 5.48435C25.2046 5.48435 26.1556 6.43574 26.1556 7.60932C26.1556 8.78291 25.2046 9.7343 24.0307 9.7343C22.8577 9.7343 21.9057 8.78291 21.9057 7.60932C21.9057 6.43574 22.8577 5.48435 24.0307 5.48435ZM19.3067 7.98232H21.4157C21.6007 9.2845 22.7157 10.2519 24.0307 10.2539C25.3466 10.2519 26.4606 9.2845 26.6456 7.98232H28.6926C28.9926 7.98232 29.2336 8.22342 29.2336 8.52331V8.98821V9.6347V11.3029H18.7657V9.6347V8.98821V8.52331C18.7657 8.22342 19.0067 7.98232 19.3067 7.98232ZM12.5178 9.289H16.8297H18.2497L18.2517 11.8159H19.3137H21.7787H26.2206H28.6876H29.7496L29.7476 9.289H30.7246L35.6715 9.2948C37.3095 9.2968 37.4745 10.2429 37.4745 11.1619L37.4765 40.9705C37.4765 41.8895 36.9575 42.5115 35.6905 42.5115H12.1928C11.2738 42.5115 10.5178 41.9055 10.5178 40.9855V10.8459C10.5178 9.7228 11.0708 9.289 12.5178 9.289ZM23.5547 13.1369C23.4517 13.1349 23.3427 13.2339 23.2927 13.3479L21.5447 18.0078L20.4567 15.2418C20.3627 15.0128 20.1757 15.0018 19.9077 15.2538L19.0327 16.0998H15.1018C14.5988 16.1198 14.5718 16.6248 15.1018 16.6128H19.2417L20.1107 15.7708L21.3477 18.9118C21.4497 19.0608 21.5117 19.3618 21.8257 18.7228L23.3177 14.7458L23.6127 21.6537C23.6247 22.0547 23.9967 22.0007 24.1347 21.6367L26.0876 15.9098L27.7556 19.1478C27.8456 19.2518 27.8636 19.4758 28.2126 18.9118L28.2086 18.9038C28.5366 18.3728 28.8646 17.7978 29.1876 17.2478H33.0325C33.4025 17.2508 33.4365 16.7418 33.0305 16.7338H29.1086C28.8846 16.7378 28.8246 16.8508 28.7906 16.9078L27.9336 18.3688L26.3196 15.2338V15.2318H26.3176C26.1266 14.8418 25.9316 14.7898 25.8316 15.0678L24.0677 20.2378L23.7807 13.5328H23.7727L23.7747 13.5268C23.7537 13.2399 23.6567 13.1379 23.5547 13.1369ZM13.9378 24.8607L13.9388 25.3747H34.0615L34.0605 24.8607H13.9378ZM13.9378 28.8607L13.9388 29.3746H34.0615L34.0605 28.8607H13.9378ZM13.9378 32.8606L13.9388 33.3746H34.0615L34.0605 32.8606H13.9378ZM13.9378 36.8606L13.9388 37.3745H26.6246L26.6226 36.8606H13.9378Z" fill="#333333"/>
</svg>

<?xml version="1.0" encoding="UTF-8" standalone="no"?>
<!-- Created with Inkscape (http://www.inkscape.org/) -->
<svg id="svg8" xmlns:rdf="http://www.w3.org/1999/02/22-rdf-syntax-ns#" xmlns="http://www.w3.org/2000/svg" height="48" viewBox="0 0 12.7 12.7" width="48" version="1.1" xmlns:cc="http://creativecommons.org/ns#" xmlns:dc="http://purl.org/dc/elements/1.1/">
 <title id="title4753">UIO-icon</title>
 <metadata id="metadata5">
  <rdf:RDF>
   <cc:Work rdf:about="">
    <dc:format>image/svg+xml</dc:format>
    <dc:type rdf:resource="http://purl.org/dc/dcmitype/StillImage"/>
    <dc:title>UIO-icon</dc:title>
    <dc:creator>
     <cc:Agent>
      <dc:title>Joaquín Urbano</dc:title>
     </cc:Agent>
    </dc:creator>
    <dc:rights>
     <cc:Agent>
      <dc:title>GPL</dc:title>
     </cc:Agent>
    </dc:rights>
   </cc:Work>
  </rdf:RDF>
 </metadata>
 <path id="rect858-8" d="m24.029 4.9727c-1.4 0.0015-2.552 1.1015-2.619 2.5h-2.098c-0.588 0-1.062 0.4752-1.062 1.0644v0.2383h-6.389c-1.029 0-1.859 0.8276-1.859 1.8576v30.535c0 1.03 0.83 1.859 1.859 1.859h24.278c1.029 0 1.857-0.829 1.857-1.859v-30.535c0-1.03-0.828-1.8576-1.857-1.8576h-6.391v-0.2383c0-0.5892-0.473-1.0644-1.062-1.0644h-2.038c-0.066-1.3985-1.219-2.4985-2.619-2.5zm0.002 0.5117c1.174 0 2.125 0.9514 2.125 2.125s-0.951 2.125-2.125 2.125c-1.173 0-2.125-0.9514-2.125-2.125s0.952-2.125 2.125-2.125zm-4.724 2.498h2.109c0.185 1.3022 1.3 2.2696 2.615 2.2716 1.316-0.002 2.43-0.9694 2.615-2.2716h2.047c0.3 0 0.541 0.2411 0.541 0.541v0.4649 0.6465 1.6682h-10.468v-1.6682-0.6465-0.4649c0-0.2999 0.241-0.541 0.541-0.541zm-6.789 1.3067h4.312 1.42l0.002 2.5269h1.062 2.465 4.442 2.467 1.062l-0.002-2.5269h0.977l4.947 0.0058c1.638 0.002 1.803 0.9481 1.803 1.8671l0.002 29.809c0 0.919-0.519 1.541-1.786 1.541h-23.498c-0.919 0-1.675-0.606-1.675-1.526v-30.14c0-1.1231 0.553-1.5569 2-1.5569zm11.037 3.8479c-0.103-0.002-0.212 0.097-0.262 0.211l-1.748 4.66-1.088-2.766c-0.094-0.229-0.281-0.24-0.549 0.012l-0.875 0.846h-3.931c-0.503 0.02-0.53 0.525 0 0.513h4.14l0.869-0.842 1.237 3.141c0.102 0.149 0.164 0.45 0.478-0.189l1.492-3.977 0.295 6.908c0.012 0.401 0.384 0.347 0.522-0.017l1.953-5.727 1.668 3.238c0.09 0.104 0.108 0.328 0.457-0.236l-0.004-0.008c0.328-0.531 0.656-1.106 0.979-1.656h3.845c0.37 0.003 0.404-0.506-0.002-0.514h-3.922c-0.224 0.004-0.284 0.117-0.318 0.174l-0.857 1.461-1.614-3.135v-0.002h-0.002c-0.191-0.39-0.386-0.442-0.486-0.164l-1.764 5.17-0.287-6.705h-0.008l0.002-0.006c-0.021-0.287-0.118-0.389-0.22-0.39zm-9.617 11.724l0.001 0.514h20.123l-0.001-0.514h-20.123zm0 4l0.001 0.514h20.123l-0.001-0.514h-20.123zm0 4l0.001 0.514h20.123l-0.001-0.514h-20.123zm0 4l0.001 0.514h12.686l-0.002-0.514h-12.685z" transform="scale(.26458)" stroke-width=".99999" fill="#333"/>
</svg>
